X:1
T:G minor Oliver Holden, 1800
T:Isaac Watts, 1719 (Psalm 84) 86. 86. (C. M.)
T:Vergennes No copyright. Treble - Tenor - Bass from Plain Psalmody , 1800; Counter by B. C. Johnston, 2015.
%%score [ 1 2 3 4 ]
L:1/8
M:4/4
K:Bb
V:1 treble nm="Treble" snm="Tr."
V:2 treble nm="Counter" snm="C."
V:3 treble-8 nm="Tenor" snm="T."
V:4 bass nm="Bass" snm="B."
V:1
 G4 | (B3 c d2) c2 | B2 Bd d2 d2 | d8 | d4 c2 d2 | d2 d2 d4 | d4 d2 B2 | G2 B2 A2 G2 | %8
w: 1.~My|heart~ * * and|soul cry * out for|Thee,|When far from|Thine a- bode;|When shall I|tread Thy courts, and|
w: 2.~My|soul,~ * * how|love- ly * is the|place|To which thy|God re- sorts;|'Tis heav'n to|see His smi- ling|
 (^F3 G A2) B2 | c2 B2 AG ^F2 | G8 | z4 G4 | B3 c B2 G2 | A2 A2 A2 d2 | e2 d2 c2 B>c | %15
w: see~ * * My|Sav- ior and * my|God?|The|spar- row builds her-|self a nest, And|suf- fers no re- *|
w: face,~ * * Tho'|in His earth- * ly|courts.|There|the great mon- arch|of the skies His|sa- ving pow'r dis- *|
 d4"^O       make    me  like  the\n And    light   breaks  in   up --" z4 | z8 | %17
w: move,||
w: plays;||
"^sparrow  blest,  To   dwell  but  where  I   love,\n- on  our  eyes  With  kind and quickening rays," z8 | %18
w: |
w: |
 z8 | z8 | B4 F2 B2 | A2 A2 B2 A2 | B3 B d3 d | d4 d4 | B8 |] %25
w: ||O make me|like the spar- row|blest, To dwell but|where I|love.|
w: ||And light breaks|in up- on our|eyes With kind and|quick- ening|rays.|
V:2
 D4 | (D3 E F2) E2 | G2 G2 E2 ^F2 | D8 | D4 E2 G2 | A2 B2 A4 | D4 ^F2 G2 | E2 D2 C2 D2 | %8
w: 3.~With|His~ * * rich|gifts, the heav'n- ly|Dove|De- scends and|fills the place,|While Christ re-|veals His won- drous|
 (D3 E ^F2) D2 | D2 D2 ^F2 D2 | D8 |"^There," z8 | %12
w: love~ * * And|sheds a- broad His|grace.||
"^migh  -  ty    God,    Thy    words  declare   The    sec - rets  of    Thy      will;" z8 | z8 | %14
w: ||
 z8 | z4 D4 | D3 F G2 G2 | D3 C D2 D2 | F2 E2 D2 C2 | D8 | F4 F2 F2 | F2 A2 G2 E2 | D3 D G3 F | %23
w: |And|still we seek Thy|mer- cy there, And|sing Thy prai- ses|still.|And still we|seek Thy mer- cy|there, And sing Thy|
 G4 ^F4 | D8 |] %25
w: prai- ses|still.|
V:3
 G4 | (G3 A B2) c2 | d2 dB c2 A2 | G8 | B4 c2 B2 | A2 G2 A4 | B4 A2 d2 | e2 d2 c2 B2 | %8
w: 4.~Lord,|at~ * * Thy|thresh- hold * I would|wait,|While Je- sus|is with- in;|Rath- er than|fill a throne of|
 (A3 G ^F2) G2 | A2 d2 cB A2 | G8 |"^Could" z8 | %12
w: state,~ * * Or|live in tents * of|sin.||
"^I         command      the     spacious  land,  And   the  more  boundless     sea," z8 | z8 | %14
w: ||
 z8 | z4 d4 | B3 c B2 G2 | d3 e d2 B2 | d2 c2 B2 A2 | B8 | d4 d2 d2 | c2 c2 B2 c2 | d3 d g3 d | %23
w: |For|one blest hour at|Thy right hand, I'd|give them both a-|way.|For one blest|hour at Thy right|hand, I'd give them|
 B4 A4 | G8 |] %25
w: both a-|way.|
V:4
 G,4 | G,6 A,2 | B,2 B,2 C2 D2 | G,8 | G,4 ^F,2 G,2 | D,2 G,,2 D,4 | B,,4 D,2 D,2 | %7
 C,2 B,,2 F,2 G,2 | D,6 G,2 | ^F,2 G,2 C,2 D,2 | G,8 | z4 G,4 | G,3 ^F, G,2 G,2 | D,2 D,2 D,2 B,2 | %14
 C2 B,2 A,2 G,2 | D,4 D,4 | G,3 A, G,2 G,2 | B,3 C B,2 G,2 | B,2 A,2 G,2 F,2 | B,,8 | B,4 B,2 B,2 | %21
 F,2 F,2 B,2 A,2 | G,3 G, G,3 B, | D4 D,4 | G,8 |] %25

